X:2173
T:The was a lady from the north 
C:T Kermode 
C:Traditional
O:Isle of Man
Z:Clague collection
B:Kiaull Vannin #173 
M:2/4 
L:1/8 
Q:160 
K:D 
B>A|G2 A2|E2 B>A|G2 A2|E2 Bc|d2 B2|B2 d2|e3 d|B2 B2| 
e2 B2|B2 AG|A2 B2|E2 E2|E3 F|G>A B2|A3 G|E2|| 

